X:1
T:Erlkonig
T:Erlkönig
T:D. 328; Op. 1
T:Franz Schubert
T:Johann Wolfgang von Goethe
C:Franz Schubert
Z:Johann Wolfgang von Goethe
%%score 1 { 2 | ( 3 4 ) }
L:1/8
Q:1/4=152
M:4/4
K:Bb
V:1 treble nm="Voice"
V:2 treble nm="Piano"
V:3 bass 
V:4 bass 
V:1
"^Schnell"!ff! z8 | z8 | z8 | z8 | z8 | z8 | z8 | z8 | z8 | z8 | z8 | z8 | z8 | z8 | z4 z2 A2 | %15
w: ||||||||||||||Wer|
 B4 A2 G2 | A6 A2 | B4 G4 | d4 z4 | z4 z2 d2 | d6 g2 | g4 e2 c2 | f6 A2 | B4 z2 B2 | e6 A2 | %25
w: rei- tet so|spät durch|Nacht und|Wind?|Es|ist der|Va- ter mit|sei- nem|Kind; er|hat den|
{c} B4 B4 | e4 A3 A |{c} B4 z2 B2 | d6 A2 |{c} B2 B2 z2 G2 | A4 ^F4 | G4 z4 | z8 | z8 | z8 | %35
w: Kna- ben|wohl in dem|Arm, er|fasst ihn|si- cher, er|hält ihn|warm.||||
 z4 z2 D2 | G4 z2 D2 | G4 A3 A | B4 =B3 B | c4 z4 | z4 z2 c2 | d6 G2 | e6 c2 | d4 d2 G2 | e4 z4 | %45
w: mein|Sohn, was|birgst du so|bang dein Ge-|sicht?|Siehst,|Va- ter,|du den|Erl- kö- nig|nicht?|
 z4 z2 c2 | _d6 B2 | A2 F2 z2 c2 | _d6 cB | c4 z4 | z4 z2 C2 | E6 E2 | F6 C2 | E3 D D2 z2 | z8 | %55
w: den|Er- len-|kö- nig mit|Kron' und _|Schweif?|Mein|Sohn, es|ist ein|Ne- bel- streif.||
 z8 | z4 z2 c2 | d6 B2 | F6 c2 | d6 B2 | F6 c2 | d6 d2 | f4 c4 | (c2 (3=Bcd) c2 =E2 | F6 F2 | %65
w: |"Du|lie- bes|Kind, komm,|geh mit|mir! gar|schö- ne|Spie- le|spiel' _ _ _ ich mit|dir; manch'|
 c6 ^c2 | d4 B2 (B=B) | c6 F2 | d6 dd | g3 f fe dc | B4- Bc d c | B4 z2 d2 | e4 e3 e | %73
w: bun- te|Blu- men sind _|an dem|Strand; mei- ne|Mut- ter hat _ manch' _|gül- * * den Ge-|wand." Mein|Va- ter, mein|
 ed d2 z2 d2 | e4 e3 e | d4 z2 A2 | B2 A2 B2 =B B | c4 ^c3 c | d8 | z4 z2 ^F2 || %80
w: Va- * ter, und|hö- rest du|nicht, was|Er- len- kö- nig mir|lei- se ver-|spricht?|Sei|
[K:C] B2 B2 z2 ^F F | A2 G G G4 | z2 G2 A2 A2 | B2 G2 D2 E ^F | G4 z4 | z4 z2 G2 | G2 AB c2 c ^c | %87
w: ru- hig, blei- be|ru- hig, mein Kind;|in dür- ren|Blät- tern säu- selt der|Wind.|"Willst,|fei- ner _ Kna- be, du|
 d2 G2 e2 d c | B2 E2 c2 A A | B2 E2 c2 A A | A2 ^GA B2 =G G | A2 DD B2 z G | G2 A B c2 d e | %93
w: mit mir gehn? mei- ne|Töch- ter sol- len dich|war- ten schön; mei- ne|Töch- ter _ füh- ren den|nächt- li- chen Reihn, und|wie- gen und tan- zen und|
 f2 d B c2 z G | G2 A B c2 d e | (gf) d B c2 z2 | z4 z2 e2 | f4 f3 f | (fe) e2 z2 e2 | f4 f3 f | %100
w: sin- gen dich ein, sie|wie- gen und tan- zen und|sin- * gen dich ein."|Mein|Va- ter, mein|Va- * ter, und|sichst du nicht|
 e4 z2 B2 | c2 B2 c2 ^c c | d4 ^d4 | e8 | z4 z2 ^G2 | ^c4 z2 ^G2 | A4 z2 A2 | A4 A3 A | d6 d2 | %109
w: dort Erl-|kö- nigs Töch- ter am|dü- stern|Ort?|Mein|Sohn, mein|Sohn, ich|seh' es ge-|nau; es|
 d2 _B G E2 B2 | A4 A2 A2 | D4 z4 | z8 | z8 | z8 | z4 z2 d2 | _e3 _B B2 e2 | d2 d _e f2 e d | %118
w: schei- nen die al- ten|Wei- den so|grau.||||"Ich|lie- be dich, mich|reizt dei- ne schö- ne Ge-|
 _e6 d2 | ^c4 c2 c2 | d4 d3 ^G | A4 A3 A | D4 z2!fff! f2 | _g4 g3 g | _gf f2 z2 f2 | _g4 g3 g | %126
w: stalt; und|bist du nicht|wil- lig, so|brauch' ich Ge-|walt." Mein|Va- ter, mein|Va- * ter, jetzt|fasst er mich|
 f4 z4 | f4 ^f3 f | =g4 _e3 e | d6 d2 ||[K:Bb] G4 z4 | z4 z2 D2 | D6 D2 |{A} G2 G2 z2 G2 | %134
w: an!|Erl- kö- nig|hat mir ein|Leids ge-|than!|Dem|Va- ter|grau- set's, er|
"^accelerando" G4 A3 A | B4 z2 B2 | B4 c4 |{e} d2 d2 z2 d2 | d4 g3 d | e4 z4 | z8 | z4 z2 c2 | %142
w: rei- tet ge-|schwind er|hält in|Ar- men das|äch- zen- de|Kind,||er-|
 c6 _A2 | _d3 B G2 B2 | _A2 z2 z4 |[Q:1/4=70]"^Recit." z2 z/!f! _A/ A/ B/ c2 B A | %146
w: reicht den|Hof mit Müh' und|Noth;|in sei- nen Ar- men das|
 G2 !fermata!z ^C D2[Q:1/4=70]"^Andante" z2 | z8 |] %148
w: Kind war todt.||
V:2
!f! (3[G,G][G,G][G,G] (3[G,G][G,G][G,G] (3[G,G][G,G][G,G] (3[G,G][G,G][G,G] | %1
 (3:2:1!/![G,G]3 (3:2:1!/![G,G]3 (3:2:1!/![G,G]3 (3:2:1!/![G,G]3 | %2
 (3:2:1!/![G,G]3 (3:2:1!/![G,G]3 (3:2:1!/![G,G]3 (3:2:1!/![G,G]3 | %3
 (3:2:1!/![G,G]3 (3:2:1!/![G,G]3 (3:2:1!/![G,G]3 (3:2:1!/![G,G]3 | %4
 (3:2:1!/![G,G]3 (3:2:1!/![G,G]3 (3:2:1!/![G,G]3 (3:2:1!/![G,G]3 | %5
!<(! (3:2:1!/![A,GA]3 (3:2:1!/![A,GA]3 (3:2:1!/![A,GA]3 (3:2:1!/![A,GA]3!<)! | %6
!ff!!>(! (3:2:1!/![B,GB]3 (3:2:1!/![B,GB]3 (3:2:1!/![A,^FA]3 (3:2:1!/![A,FA]3!>)! | %7
!f! (3:2:1!/![G,G]3 (3:2:1!/![G,G]3 (3:2:1!/![G,G]3 (3:2:1!/![G,G]3 | %8
!>(! (3:2:1!/![G,G]3 (3:2:1!/![G,G]3 (3:2:1!/![G,G]3 (3:2:1!/![G,G]3 | %9
 (3:2:1!/![G,G]3 (3:2:1!/![G,G]3 (3:2:1!/![G,G]3 (3:2:1!/![G,G]3 | %10
 (3:2:1!/![G,G]3 (3:2:1!/![G,G]3 (3:2:1!/![G,G]3 (3:2:1!/![G,G]3 | %11
 (3:2:1!/![G,G]3 (3:2:1!/![G,G]3 (3:2:1!/![G,G]3 (3:2:1!/![G,G]3!>)! | %12
!pp! (3:2:1!/![A,GA]3 (3:2:1!/![A,GA]3 (3:2:1!/![A,GA]3 (3:2:1!/![A,GA]3 | %13
 (3:2:1!/![B,GB]3 (3:2:1!/![B,GB]3 (3:2:1!/![B,GB]3 (3:2:1!/![B,=EG]3 | %14
 (3:2:1!/![A,^FA]3 (3:2:1!/![A,FA]3 (3:2:1!/![A,FA]3 (3:2:1!/![A,FA]3 | %15
 (3:2:1!/![B,DG]3 (3:2:1!/![B,DG]3 (3:2:1!/![B,DG]3 (3:2:1!/![B,DG]3 | %16
 (3:2:1!/![A,D^F]3 (3:2:1!/![A,DF]3 (3:2:1!/![A,DF]3 (3:2:1!/![A,DF]3 | %17
 (3:2:1!/![B,DG]3 (3:2:1!/![B,DG]3 (3:2:1!/![B,DG]3 (3:2:1!/![B,DG]3 | %18
 (3:2:1!/![A,D^F]3 (3:2:1!/![A,DF]3 (3:2:1!/![A,DF]3 (3:2:1!/![A,DF]3 | %19
 (3:2:1!/![A,D^F]3 (3:2:1!/![A,DF]3 (3:2:1!/![A,DF]3 (3:2:1!/![A,DF]3 | %20
 (3:2:1!/![=B,D=FG]3 (3:2:1!/![A,DFG]3 (3:2:1!/![A,DFG]3 (3:2:1!/![A,DFG]3 | %21
 (3:2:1!/![CEG]3 (3:2:1!/![CEG]3 (3:2:1!/![CEG]3 (3:2:1!/![CEGc]3 | %22
 (3:2:1!/![DFB]3 (3:2:1!/![DFB]3 (3:2:1!/![CEFA]3 (3:2:1!/![CEFA]3 | %23
 (3:2:1!/![DFB]3 (3:2:1!/![DFB]3 (3:2:1!/![DFB]3 (3:2:1!/![DFB]3 | %24
 (3:2:1!/![CE_GA]3 (3:2:1!/![CEGA]3 (3:2:1!/![CEGA]3 (3:2:1!/![CEGA]3 | %25
 (3:2:1!/![DFB]3 (3:2:1!/![DFB]3 (3:2:1!/![DFB]3 (3:2:1!/![DFB]3 | %26
 (3:2:1!/![CE_GA]3 (3:2:1!/![CEGA]3 (3:2:1!/![CEGA]3 (3:2:1!/![CEGA]3 | %27
 (3:2:1!/![DFB]3 (3:2:1!/![DFB]3 (3:2:1!/![DFB]3 (3:2:1!/![DFB]3 | %28
 (3:2:1!/![CDA]3 (3:2:1!/![CDA]3 (3:2:1!/![CDA]3 (3:2:1!/![CDA]3 | %29
 (3:2:1!/![B,DG]3 (3:2:1!/![B,DG]3 (3:2:1!/![B,DG]3 (3:2:1!/![B,DG]3 | %30
 (3:2:1!/![A,EG]3 (3:2:1!/![A,EG]3 (3:2:1!/![A,D^F]3 (3:2:1!/![A,DF]3 | %31
!f! (3:2:1!/![G,G]3 (3:2:1!/![G,G]3 (3:2:1!/![G,G]3 (3:2:1!/![G,G]3 | %32
 (3:2:1!/![G,G]3 (3:2:1!/![G,G]3 (3:2:1!/![G,G]3 (3:2:1!/![G,G]3 | %33
 (3:2:1!/![G,G]3 (3:2:1!/![G,G]3 (3:2:1!/![G,G]3 (3:2:1!/![G,G]3 | %34
!pp! (3:2:1!/![G,G]3 (3:2:1!/![G,G]3 (3:2:1!/![G,G]3 (3:2:1!/![G,G]3 | %35
 (3:2:1!/![G,G]3 (3:2:1!/![G,G]3 (3:2:1!/![G,G]3 (3:2:1!/![G,G]3 | %36
 (3:2:1!/![G,G]3 (3:2:1!/![G,G]3 (3:2:1!/![G,G]3 (3:2:1!/![G,G]3 | %37
 (3:2:1!/![G,G]3 (3:2:1!/![G,G]3 (3:2:1!/![A,GA]3 (3:2:1!/![A,GA]3 | %38
 (3:2:1!/![B,GB]3 (3:2:1!/![B,GB]3!>(! (3:2:1!/![=B,F_A=B]3 (3:2:1!/![B,FAB]3!>)! | %39
!f! (3:2:1!/![CEGc]3 (3:2:1!/![CEGc]3 (3:2:1!/![CEGc]3 (3:2:1!/![CEGc]3 | %40
!pp! (3:2:1!/![CEGc]3 (3:2:1!/![CEGc]3 (3:2:1!/![CEGc]3 (3:2:1!/![CEGc]3 | %41
 (3:2:1!/![DF_A=B]3 (3:2:1!/![DFAB]3 (3:2:1!/![DFAB]3 (3:2:1!/![DFAB]3 | %42
 (3:2:1!/![CEGc]3 (3:2:1!/![CEGc]3 (3:2:1!/![CEGc]3 (3:2:1!/![CEGc]3 | %43
!>(! (3:2:1!/![DF_A=B]3 (3:2:1!/![DFAB]3 (3:2:1!/![DFAB]3 (3:2:1!/![DFAB]3!>)! | %44
!mf! (3:2:1!/![CEGc]3 (3:2:1!/![CEGc]3 (3:2:1!/![CEGc]3 (3:2:1!/![CE_Gc]3 | %45
!p! (3:2:1!/![A,CEF]3 (3:2:1!/![A,CEF]3 (3:2:1!/![A,CEF]3 (3:2:1!/![A,CEF]3 | %46
 (3:2:1!/![G,B,_D=E]3 (3:2:1!/![G,B,DE]3 (3:2:1!/![G,B,DE]3 (3:2:1!/![G,B,DE]3 | %47
!mf! (3:2:1!/![A,CEF]3 (3:2:1!/![A,CEF]3 (3:2:1!/![A,CEF]3 (3:2:1!/![A,CEF]3 | %48
 (3:2:1!/![G,B,_D=E]3 (3:2:1!/![G,B,DE]3 (3:2:1!/![G,B,DE]3 (3:2:1!/![G,B,DE]3 | %49
[K:bass] (3[F,A,CF][F,F][F,F] (3[F,F][F,F][F,F] (3:2:1!/![F,F]3 (3:2:1!/![F,F]3 | %50
 (3:2:1!/![F,F]3 (3:2:1!/![F,F]3 (3:2:1!/![F,F]3 (3:2:1!/![F,F]3 | %51
 (3:2:1!/![F,F]3 (3:2:1!/![F,F]3 (3:2:1!/![F,F]3 (3:2:1!/![F,F]3 | %52
 (3:2:1!/![F,F]3 (3:2:1!/![F,F]3 (3:2:1!/![F,F]3 (3:2:1!/![F,F]3 | %53
 (3:2:1!/![F,DF]3 (3:2:1!/![F,DF]3 (3:2:1!/![F,DF]3 (3:2:1!/![F,DF]3 | %54
!mf! (3:2:1!/![F,DF]3 (3:2:1!/![F,DF]3 (3:2:1!/![F,DF]3 (3:2:1!/![F,DF]3 | %55
!>(! (3:2:1!/![G,CE]3 (3:2:1!/![G,CE]3 (3:2:1!/![G,CE]3 (3:2:1!/![G,CE]3 | %56
 (3:2:1!/![F,B,D]3 (3:2:1!/![F,B,D]3 (3:2:1!/![F,A,C]3 (3:2:1!/![F,A,C]3!>)! | %57
!ppp! (3z [F,B,DF][F,B,DF] (3z [F,B,DF][F,B,DF] (3z [F,B,DF][F,B,DF] (3z [F,B,DF][F,B,DF] | %58
 (3z [F,A,EF][F,A,EF] (3z [F,A,EF][F,A,EF] (3z [F,A,EF][F,A,EF] (3z [F,A,EF][F,A,EF] | %59
 (3z [F,B,DF][F,B,DF] (3z [F,B,DF][F,B,DF] (3z [F,B,DF][F,B,DF] (3z [F,B,DF][F,B,DF] | %60
 (3z [F,A,EF][F,A,EF] (3z [F,A,EF][F,A,EF] (3z [F,A,EF][F,A,EF] (3z [F,A,EF][F,A,EF] | %61
 (3z [F,B,DF][F,B,DF] (3z [F,B,DF][F,B,DF] (3z [F,B,DF][F,B,DF] (3z [F,B,DF][F,B,DF] | %62
 (3z [A,CF][A,CF] (3z [A,CF][A,CF] (3z [A,CF][A,CF] (3z [A,CF][A,CF] | %63
 (3z [G,B,C=E][G,B,CE] (3z [G,B,CE][G,B,CE] (3z [G,B,CE][G,B,CE] (3z [G,B,CE][G,B,CE] | %64
 (3z [F,A,CF][F,A,CF] (3z [F,A,CF][F,A,CF] (3z [F,A,CF][F,A,CF] (3z [F,A,CF][F,A,CF] | %65
 (3z [F,A,_EF][F,A,EF] (3z [F,A,EF][F,A,EF] (3z [F,A,EF][F,A,EF] (3z [F,A,EF][F,A,EF] | %66
 (3z [F,B,DF][F,B,DF] (3z [F,B,DF][F,B,DF] (3z [F,B,DF][F,B,DF] (3z [F,B,DF][F,B,DF] | %67
 (3z [F,A,EF][F,A,EF] (3z [F,A,EF][F,A,EF] (3z [F,A,EF][F,A,EF] (3z [F,A,EF][F,A,EF] | %68
 (3z [F,B,DF][F,B,DF] (3z [F,B,DF][F,B,DF] (3z [F,B,DF][F,B,DF] (3z [F,B,DF][F,B,DF] | %69
 (3z [G,=B,DF][G,B,DF] (3z [G,B,DF][G,B,DF] (3z [G,CE][G,CE] (3z [G,CE][G,CE] | %70
 (3z [F,B,D][F,B,D] (3z [F,B,DF][F,B,DF] (3z [E,F,A,C][E,F,A,C] (3z [E,F,A,C][E,F,A,C] | %71
 (3[D,F,B,][K:treble][Dd][Dd]!f! (3:2:1!/![Dd]3 (3:2:1!/![Dd]3 (3:2:1!/![Dd]3 | %72
 (3:2:1!/![Dd]3 (3:2:1!/![Dd]3 (3:2:1!/![Dd]3 (3:2:1!/![Dd]3 | %73
 (3:2:1!/![Dd]3 (3:2:1!/![Dd]3 (3:2:1!/![Dd]3 (3:2:1!/![Dd]3 | %74
 (3:2:1!/![Dd]3 (3:2:1!/![Dd]3 (3:2:1!/![Dd]3 (3:2:1!/![Dd]3 | %75
 (3:2:1!/![Dd]3 (3:2:1!/![Dd]3!p! (3:2:1!/![Dd]3 (3:2:1!/![Dd]3 | %76
 (3:2:1!/![Dd]3 (3:2:1!/![Dd]3 (3:2:1!/![Dd]3 (3:2:1!/![Dd]3 | %77
"_dim." (3:2:1!/![Dd]3 (3:2:1!/![Dd]3 (3:2:1!/![Dd]3 (3:2:1!/![Dd]3 | %78
!<(! (3:2:1!/![Dd]3 (3:2:1!/![Dd]3 (3:2:1!/![Dd]3 (3:2:1!/![Dd]3!<)! | %79
!>(! (3:2:1!/![Dd]3 (3:2:1!/![=EG^c]3 (3:2:1!/![D^F=B]3 (3:2:1!/![^CF^A]3!>)! || %80
[K:C]!p! (3:2:1!/![D^FB]3 (3:2:1!/![DFB]3 (3:2:1!/![DFB]3 (3:2:1!/![DFB]3 | %81
 (3:2:1!/![B,EG]3 (3:2:1!/![B,EG]3 (3:2:1!/![B,EG]3 (3:2:1!/![B,EG]3 | %82
 (3:2:1!/![B,EG]3 (3:2:1!/![B,EG]3 (3:2:1!/![CEA]3 (3:2:1!/![CEA]3 | %83
 (3:2:1!/![B,DG]3 (3:2:1!/![B,DG]3 (3:2:1!/![CD^F]3 (3:2:1!/![CDF]3 | %84
!<(! (3:2:1!/![B,DG]3 (3:2:1!/![B,DG]3 (3:2:1!/![B,DG]3 (3:2:1!/![B,DG]3!<)! | %85
!>(! (3:2:1!/![B,=FG]3 (3:2:1!/![B,FG]3 (3:2:1!/![CFG]3 (3:2:1!/![DFG]3!>)! | %86
!ppp! (3G,CE (3GEC (3G,CE (3GEC | (3G,B,F (3GFB, (3G,CE (3GEC | (3B,DE (3^GED (3A,CE (3AEC | %89
 (3B,DE (3^GED (3A,CE (3AEC | (3A,CD (3^FDC (3G,B,D (3GDB, | (3A,CD (3^FDC (3G,B,D (3GDB, | %92
 (3G,B,=F (3GFD (3G,CE (3GEC | (3G,DF (3GFD (3G,CE (3GEC | (3G,B,F (3GFD (3G,CE (3GEC | %95
 (3G,DF (3GFD (3C!f![Ee]!>(![Ee] (3:2:1!/![Ee]3!>)! | %96
 (3:2:1!/![Ee]3 (3:2:1!/![Ee]3 (3:2:1!/![Ee]3 (3:2:1!/![Ee]3 | %97
 (3:2:1!/![Ee]3 (3:2:1!/![Ee]3 (3:2:1!/![Ee]3 (3:2:1!/![Ee]3 | %98
 (3:2:1!/![Ee]3 (3:2:1!/![Ee]3 (3:2:1!/![Ee]3 (3:2:1!/![Ee]3 | %99
 (3:2:1!/![Ee]3 (3:2:1!/![Ee]3 (3:2:1!/![Ee]3 (3:2:1!/![Ee]3 | %100
 (3:2:1!/![Ee]3 (3:2:1!/![Ee]3 (3:2:1!/![Ee]3 (3:2:1!/![Ee]3 | %101
 (3:2:1!/![Ee]3 (3:2:1!/![Ee]3 (3:2:1!/![Ee]3 (3:2:1!/![Ee]3 | %102
"_dim." (3:2:1!/![Ee]3 (3:2:1!/![Ee]3 (3:2:1!/![Ee]3 (3:2:1!/![Ee]3 | %103
!<(! (3:2:1!/![Ee]3 (3:2:1!/![Ee]3 (3:2:1!/![Ee]3 (3:2:1!/![Ee]3!<)! | %104
!>(! (3:2:1!/![Ee]3 (3:2:1!/![^FA^d]3 (3:2:1!/![E^G^c]3 (3:2:1!/![^DG^B]3!>)! | %105
 (3:2:1!/![^C^c]3 (3:2:1!/![Cc]3 (3:2:1!/![Cc]3!mf! (3:2:1!/![Cc]3 | %106
 (3:2:1!/![^C^c]3 (3:2:1!/![Cc]3 (3:2:1!/![Cc]3 (3:2:1!/![Cc]3 | %107
!>(! (3:2:1!/![E=GA^c]3 (3:2:1!/![EGAc]3!>)! (3:2:1!/![EGAc]3 (3:2:1!/![EGAc]3 | %108
 (3:2:1!/![=FAd]3 (3:2:1!/![FAd]3 (3:2:1!/![FAd]3 (3:2:1!/![FAd]3 | %109
 (3:2:1!/![E_Bd]3"_cresc." (3:2:1!/![EBd]3 (3:2:1!/![EBd]3 (3:2:1!/![EBd]3 | %110
 (3:2:1!/![FAd]3 (3:2:1!/![FAd]3 (3:2:1!/![EA^c]3 (3:2:1!/![EAc]3 | %111
!ff! (3[FAd]!>(![Dd][Dd] (3:2:1!/![Dd]3 (3:2:1!/![Dd]3 (3:2:1!/![Dd]3!>)! | %112
!f! (3:2:1!/![Dd]3 (3:2:1!/![Dd]3 (3:2:1!/![Dd]3 (3:2:1!/![Dd]3 | %113
 (3:2:1!/![Dd]3 (3:2:1!/![Dd]3 (3:2:1!/![Dd]3 (3:2:1!/![Dd]3 | %114
!p! (3:2:1!/![Dd]3 (3:2:1!/![Dd]3 (3:2:1!/![Dd]3 (3:2:1!/![Dd]3 | %115
 (3:2:1!/![Dd]3 (3:2:1!/![Dd]3 (3:2:1!/![Dd]3 (3:2:1!/![Dd]3 | %116
!pp! (3:2:1!/![G_B_e]3 (3:2:1!/![GBe]3 (3:2:1!/![GBe]3 (3:2:1!/![GBe]3 | %117
 (3:2:1!/![F_A_cd]3 (3:2:1!/![FAcd]3 (3:2:1!/![FAcd]3 (3:2:1!/![FAcd]3 | %118
 (3:2:1!/![G_B_e]3 (3:2:1!/![GBe]3 (3:2:1!/![GBe]3 (3:2:1!/![GBe]3 | %119
 (3:2:1!/![E_B^c]3 (3:2:1!/![EBc]3 (3:2:1!/![EBc]3 (3:2:1!/![EBc]3 | %120
 (3:2:1!/![F=Bd]3 (3:2:1!/![FBd]3 (3:2:1!/![FBd]3 (3:2:1!/![FBd]3 | %121
 (3:2:1!/![FAd]3 (3:2:1!/![FAd]3 (3:2:1!/![EA^c]3 (3:2:1!/![EAc]3 | %122
!fff! (3[FAd][Ff][Ff] (3:2:1!/![Ff]3 (3:2:1!/![Ff]3 (3:2:1!/![Ff]3 | %123
 (3:2:1!/![Ff]3 (3:2:1!/![Ff]3 (3:2:1!/![Ff]3 (3:2:1!/![Ff]3 | %124
 (3:2:1!/![Ff]3 (3:2:1!/![Ff]3 (3:2:1!/![Ff]3 (3:2:1!/![Ff]3 | %125
 (3:2:1!/![Ff]3 (3:2:1!/![Ff]3 (3:2:1!/![Ff]3 (3:2:1!/![Ff]3 | %126
 (3:2:1!/![Ff]3 (3:2:1!/![Ff]3 (3:2:1!/![Ff]3 (3:2:1!/![Ff]3 | %127
 (3:2:1!/![Ff]3 (3:2:1!/![Ff]3 (3:2:1!/![^F^f]3 (3:2:1!/![Ff]3 | %128
 (3:2:1!/![Gg]3 (3:2:1!/![Gg]3 (3:2:1!/![GA_e]3 (3:2:1!/![GAe]3 | %129
 (3:2:1!/![G_Bd]3 (3:2:1!/![GBd]3 (3:2:1!/![^FAd]3 (3:2:1!/![FAd]3 || %130
[K:Bb]!f! (3[G,G][G,G][G,G] (3:2:1!/![G,G]3 (3:2:1!/![G,G]3 (3:2:1!/![G,G]3 | %131
 (3:2:1!/![G,G]3 (3:2:1!/![G,G]3 (3:2:1!/![G,G]3 (3:2:1!/![G,G]3 | %132
 (3:2:1!/![G,G]3 (3:2:1!/![G,G]3 (3:2:1!/![G,G]3 (3:2:1!/![G,G]3 | %133
 (3:2:1!/![G,G]3 (3:2:1!/![G,G]3 (3:2:1!/![G,G]3 (3:2:1!/![G,G]3 | %134
 (3:2:1!/![G,G]3 (3:2:1!/![G,G]3"_cresc." (3:2:1!/![A,GA]3 (3:2:1!/![A,GA]3 | %135
 (3:2:1!/![B,GB]3 (3:2:1!/![B,GB]3 (3:2:1!/![B,GB]3 (3:2:1!/![B,GB]3 | %136
 (3:2:1!/![B,GB]3 (3:2:1!/![B,GB]3 (3:2:1!/![CAc]3 (3:2:1!/![CAc]3 | %137
 (3:2:1!/![DBd]3 (3:2:1!/![DBd]3 (3:2:1!/![DBd]3!f! (3:2:1!/![DBd]3 | %138
!>(! (3:2:1!/![FG=Bd]3 (3:2:1!/![FGBd]3 (3:2:1!/![FGBd]3 (3:2:1!/![FGBd]3!>)! | %139
!ff! (3:2:1!/![EGc]3 (3:2:1!/![EGc]3 (3:2:1!/![EGc]3 (3:2:1!/![EGc]3 | %140
 (3:2:1!/![Cc]3 (3:2:1!/![Cc]3!<(! (3:2:1!/![Cc]3 (3:2:1!/![Cc]3 | %141
 (3:2:1!/![Cc]3 (3:2:1!/![Cc]3 (3:2:1!/![Cc]3 (3:2:1!/![Cc]3!<)! | %142
 (3:2:1!/![CE_Ac]3 (3:2:1!/![CEAc]3 (3:2:1!/![CEAc]3 (3:2:1!/![CEAc]3 | %143
 (3:2:1!/![_D_FGB]3 (3:2:1!/![DFGB]3 (3:2:1!/![DFGB]3 (3:2:1!/![DFGB]3 | %144
!>(! (3:2:1!/![CE_A]3 (3:2:1!/![CEA]3 (3:2:1!/![CEA]3 (3:2:1!/![CEA]3!>)! |!pp! [CE_A]4 z4 | %146
 z!p! !fermata![B,=EG]2 z z2!f! [=A,CD^F] z | [G,B,DG]2 z2 z4 |] %148
V:3
 z8 |!f! (3(G,,A,,B,, (3C,D,E,) .D,2 .B,,2 | .G,,2 z2 z4 | (3(G,,A,,B,, (3C,D,E,) .D,2 .B,,2 | %4
 .G,,2 z2 z4 | [C,,C,]6 [^C,,^C,]2 | [D,,D,]8 | G,,2 z2 z4 | (3(G,,A,,B,, (3C,D,E,) .D,2 .B,,2 | %9
 .G,,2 z2 z4 | (3(G,,A,,B,, (3C,D,E,) .D,2 .B,,2 | .G,,2 z2 z4 | (C,8 | ^C,8) | %14
 (3(D,,^F,,G,, (3A,,=B,,^C,)!>(! D,4-!>)! | D,8 | (3(D,,^F,,G,, (3A,,=B,,^C,) D,4- | D,8 | %18
 (3(D,,^F,,G,, (3A,,=B,,^C,) D,4- | D,8 | ([G,,,G,,]8 | C,,6) E,,2 | F,,2 z2 F,,,2 z2 | %23
 (3(B,,C,D, (3E,F,_G,) F,2 .B,,2 | !>!B,,,8 | (3(B,,C,D, (3E,F,_G,) F,2 .B,,2 | !>!B,,,8 | %27
 (3(B,,C,D, (3E,F,_G,) F,2 .B,,2 | (!>!^F,,8 | .G,,2) z2 .E,,2 z2 | .C,,2 z2 .D,,2 z2 | %31
 G,,,2 z2 z4 | (3(G,,A,,B,, (3C,D,E,) .D,2 .B,,2 | G,,2 z2 z4 | (3(G,,A,,B,, (3C,D,E,) .D,2 .B,,2 | %35
 G,,2 z2 z4 | z8 | z8 | z4 G,,4 | (3(C,,E,,F,, (3G,,A,,=B,,) C,4 | %40
 (3(C,,E,,F,, (3G,,A,,=B,,) C,4- | C,8 | (3(C,,E,,F,, (3G,,A,,=B,,) C,4- | C,8 | %44
 (3(C,,E,,F,, (3G,,A,,=B,,) C,4 | (3(F,,A,,_B,, (3C,D,=E,) F,4- | F,8 | %47
 (3(F,,A,,B,, (3C,D,=E,) F,4- | F,8 |!>(! (3(F,,,A,,,B,,,!>)! (3C,,D,,=E,,) F,,4- | F,,8 | z8 | %52
 z8 |!>(! B,,8!>)! | z2 .B,,2 .F,,2 .D,,2 | .E,,2 z2 .C,,2 z2 | .F,,2 z2 .F,,2 z2 | %57
 [B,,,B,,] z [B,,,B,,] z [B,,,B,,] z [B,,,B,,] z | %58
 [B,,,B,,] z [B,,,B,,] z [B,,,B,,] z [B,,,B,,] z | %59
 [B,,,B,,] z [B,,,B,,] z [B,,,B,,] z [B,,,B,,] z | %60
 [B,,,B,,] z [B,,,B,,] z [B,,,B,,] z [B,,,B,,] z | %61
 [B,,,B,,] z [B,,,B,,] z [B,,,B,,] z [B,,,B,,] z | [C,,C,] z [C,,C,] z [C,,C,] z [C,,C,] z | %63
 [C,,C,] z [C,,C,] z [C,,C,] z [C,,C,] z | [F,,,F,,] z [F,,,F,,] z [F,,,F,,] z [F,,,F,,] z | %65
 [F,,,F,,] z [F,,,F,,] z [F,,,F,,] z [F,,,F,,] z | %66
 [B,,,B,,] z [B,,,B,,] z [B,,,B,,] z [B,,,B,,] z | %67
 [F,,,F,,] z [F,,,F,,] z [F,,,F,,] z [F,,,F,,] z | %68
 [B,,,B,,] z [B,,,B,,] z [B,,,B,,] z [B,,,B,,] z | [G,,,G,,] z [G,,,G,,] z [C,,C,] z [C,,C,] z | %70
 F,, z F,, z F,, z F,, z | [G,,,G,,]2 z2 z2 ([=B,,=B,]2 | [C,C]4) [A,,A,]4 | %73
 [^F,,^F,]4 z2 ([=B,,=B,]2 | [C,C]4) [A,,A,]4 | [^F,,^F,]4 z2 (F,2 | G,2 ^F,2 G,2 ^G,2 | A,4 ^A,4 | %78
 =B,8-) | B,2 .=E,2 .^F,2 .F,2 ||[K:C] B,,8 | E,,8- | E,,2 .E,,2 .C,,2 .C,,2 | .D,,2 z2 .D,,2 z2 | %84
 G,,4 D,,2 B,,,2 | G,,,4 A,,,2 B,,,2 | [C,,C,] z [C,,C,] z [C,,C,] z [C,,C,] z | %87
 [C,,C,] z [C,,C,] z [C,,C,] z [C,,C,] z | [E,,E,] z [E,,E,] z A,, z A,, z | %89
 [E,,E,] z [E,,E,] z A,, z A,, z | [D,,D,] z [D,,D,] z G,, z G,, z | %91
 [D,,D,] z [D,,D,] z G,, z G,, z | [G,,,G,,]2 z [G,,,G,,] [G,,,G,,]2 z [G,,,G,,] | %93
 [G,,,G,,]2 z [G,,,G,,] C,,2 z [G,,,G,,] | [G,,,G,,]2 z [G,,,G,,] [G,,,G,,]2 z G,, | %95
 [G,,,G,,]2 z [G,,,G,,] [C,,C,]2 z2 | z4 z2!>(! ([^C,^C]2!>)! | [D,D]4) [B,,B,]4 | %98
 [^G,,^G,]4 z2!>(! ([^C,^C]2!>)! | [D,D]4) [B,,B,]4 | [^G,,^G,]4 z2 (G,2 | A,2 ^G,2 A,2 ^A,2 | %102
 B,4 ^B,4 | ^C8-) | C2 .^F,2 .^G,2 .G,2 | ^C,4 z4 | z8 | ([A,,A,]8 | D,4) z4 | [G,,G,]8 | %110
 [A,,A,]4 [A,,A,]4 | [D,,D,]2 z2 z4 | (3(D,E,F, (3G,A,_B,) .A,2 .F,2 | D,2 z2 z4 | %114
 (3(D,E,F, (3G,A,_B,) .A,2 .F,2 | D,2 z2 z4 | [_E,,_E,]8 | [_E,,_E,]8 | [_E,,_E,]8 | [G,,G,]8 | %120
 [^G,,^G,]8 | [A,,A,]4 [A,,A,]4 | [D,,D,]4 z2!>(! ([D,D]2!>)! | [_E,_E]4) [C,C]4 | %124
 [A,,A,]4 z2!>(! ([D,D]2!>)! | [_E,_E]4) [C,C]4 | [A,,A,]4 z4 | [=B,D]4 [CD]4 | [_B,D]4 [C,C]4 | %129
 [D,D]4 [D,D]4 || %130
[K:Bb] (3[G,,,G,,][G,,,G,,][G,,,G,,] (3:2:1!/![G,,,G,,]3 (3:2:1!/![G,,,G,,]3 (3:2:1!/![G,,,G,,]3 | %131
 (3(G,,A,,B,, (3C,D,E,) .D,2 .B,,2 | %132
 (3:2:1!/![G,,,G,,]3 (3:2:1!/![G,,,G,,]3 (3:2:1!/![G,,,G,,]3 (3:2:1!/![G,,,G,,]3 | %133
 (3(G,,A,,B,, (3C,D,E,) .D,2 .B,,2 | %134
 (3:2:1!/![G,,,G,,]3 (3:2:1!/![G,,,G,,]3 (3:2:1!/![G,,,G,,]3 (3:2:1!/![G,,,G,,]3 | %135
 (3(G,,A,,B,, (3C,D,E,) .D,2 .B,,2 | %136
 (3:2:1!/![G,,,G,,]3 (3:2:1!/![G,,,G,,]3 (3:2:1!/![G,,,G,,]3 (3:2:1!/![G,,,G,,]3 | %137
 (3(G,,A,,B,, (3C,D,E,) .D,2 .B,,2 | %138
 (3:2:1!/![G,,,G,,]3 (3:2:1!/![G,,,G,,]3 (3:2:1!/![G,,,G,,]3 (3:2:1!/![G,,,G,,]3 | %139
 (3(C,,D,,E,, (3F,,G,,_A,,) .G,,2 .E,,2 | [C,,C,]4 .[_D,,_D,]2 .[=D,,=D,]2 | %141
 .[E,,E,]2 .[=E,,=E,]2 .[F,,F,]2 .[G,,G,]2 | %142
 (3:2:1!/![_A,,_A,]3 (3:2:1!/![A,,A,]3 (3:2:1!/![A,,A,]3 (3:2:1!/![A,,A,]3 | %143
 (3:2:1!/![_A,,_A,]3 (3:2:1!/![A,,A,]3 (3:2:1!/![A,,A,]3 (3:2:1!/![A,,A,]3 | %144
 (3:2:1!/![_A,,_A,]3 (3:2:1!/![A,,A,]3 (3:2:1!/![A,,A,]3 (3:2:1!/![A,,A,]3 | [C,E,_A,]4 z4 | %146
 z !fermata![^C,,^C,]2 z z2 [D,,D,] z | [G,,,G,,]2 z2 z4 |] %148
V:4
 x8 | x8 | x8 | x8 | x8 | x8 | x8 | x8 | x8 | x8 | x8 | x8 | (C,,8 | ^C,,8) | x8 | x8 | x8 | x8 | %18
 x8 | x8 | x8 | x8 | x8 | x8 | x8 | x8 | x8 | x8 | x8 | x8 | x8 | x8 | x8 | x8 | x8 | x8 | x8 | %37
 x8 | x8 | x8 | x8 | x8 | x8 | x8 | x8 | x8 | x8 | x8 | x8 | x8 | x8 | x8 | x8 | x8 | x8 | x8 | %56
 x8 | x8 | x8 | x8 | x8 | x8 | x8 | x8 | x8 | x8 | x8 | x8 | x8 | x8 | x8 | x8 | x8 | x8 | x8 | %75
 x8 | x8 | x8 | x8 | x8 ||[K:C] x8 | x8 | x8 | x8 | x8 | x8 | x8 | x8 | x8 | x8 | x8 | x8 | x8 | %93
 x8 | x8 | x8 | x8 | x8 | x8 | x8 | x8 | x8 | x8 | x8 | x8 | x8 | x8 | x8 | x8 | x8 | x8 | x8 | %112
 x8 | x8 | x8 | x8 | x8 | x8 | x8 | x8 | x8 | x8 | x8 | x8 | x8 | x8 | x8 | x8 | x8 | x8 || %130
[K:Bb] x8 | x8 | x8 | x8 | x8 | x8 | x8 | x8 | x8 | x8 | x8 | x8 | x8 | x8 | x8 | x8 | x8 | x8 |] %148

